X:263
T: ES WOLLT EIN MAEGDLEIN EIN BULEN HAN
N: E0859A
O: Europa, Mitteleuropa, Deutschland
R: Hochzeits -, Ehestands - Lied
M: 4/4
L: 1/8
K: G
G2 | G2A2B2c2 | d2d2d4 |
Bcd2Bcd2 | c2B2A2
d2 | d2A2B2G2 | F2G2A4 |
B2A2G2G2 | G2F2G2

@@@ Tune index: 4576
